X:1
T:Title
%%score { ( 1 4 5 ) | ( 2 3 6 ) }
L:1/8
Q:1/4=100
M:6/8
K:Bb
V:1 treble nm="Grand Piano"
V:4 treble 
V:5 treble 
V:2 bass 
V:3 bass 
V:6 bass 
V:1
 [DF][_D=E][=DF] [B,D]2 [DF] | [DB]3 [Fd] [DB]2 | cBG [B,GB]2 [B,EG] | [B,DF]6 | [EF]GA dcA | %5
w: E.~S.~Lorenz * * * *|||||
 [Ec]BG .[DF]3 | FGA dcA | cBG .[^FA]3 | G^FG [GB][=FA][EG] | [EG][DF][DB] .[DF]3 | FAG F2 c | %11
w: ||||||
 [B,DB]6 | [Fd]3- [Fd]c[DB] | [EG]6 | .c6 | [DF]6[K:bass] | ED[K:treble]E A2 G | %17
w: ||||||
 [EG][DF][DB] .[DF]3 | FAG F2 c | [DB]6 |] %20
w: |||
V:2
 [B,,B,][B,,B,][B,,B,] [B,,F,]2 [B,,B,] | [B,,B,]3 [B,,B,] [B,,B,]2 | %2
 [E,G,E][E,G,E][E,B,E] E,2 E, | B,,6 | z[K:treble] EE FFE | z DE .B,,3 | %6
 [F,A,E][F,B,E][F,CE] [F,A,F][F,A,F][F,CE] | [G,B,D][G,B,D][G,B,] .[D,D]3 | %8
 [E,B,E][E,A,E][E,B,E] [E,B,][E,B,][E,B,] | [B,,B,][B,,B,][B,,F,] .[B,,B,]3 | %10
 [F,A,E][F,CE][F,B,E] [F,A,E]2 [F,A,E] | B,,6 | B,B,B, z EB, | E,E,E, .E,3 | .E6 | %15
 B,,B,,B,, .B,,3 | [F,A,C][F,_A,=B,][F,=A,C] [F,CE]2 [F,A,E] | [B,,B,][B,,B,][B,,F,] .[B,,B,]3 | %18
 [F,A,E][F,CE][F,B,E] [F,A,E]2 [F,A,E] | [B,,B,]6 |] %20
V:3
 x6 | x6 | x6 | x6 | F,,3[K:treble] [F,A,]3 | B,,,3 z3 | x6 | x6 | x6 | x6 | x6 | x6 | z3 .B,3 | %13
 x6 | [E,G,]E,E, z EE, | x6 | x6 | x6 | x6 | x6 |] %20
V:4
 x6 | x6 | x6 | x6 | x6 | x6 | x6 | x6 | x6 | x6 | x6 | x6 | x6 | B,B,B, .B,3 | z G,G, z B[B,EG] | %15
 B,[K:bass]B,B, .B,3 | x2[K:treble] x4 | x6 | x6 | x6 |] %20
V:5
 x6 | x6 | x6 | x6 | x6 | x6 | x6 | x6 | x6 | x6 | x6 | x6 | x6 | x6 | z3 .G,3 | x[K:bass] x5 | %16
 x2[K:treble] x4 | x6 | x6 | x6 |] %20
V:6
 x6 | x6 | x6 | x6 | x[K:treble] x5 | x6 | x6 | x6 | x6 | x6 | x6 | x6 | x6 | x6 | z3 .E,3 | x6 | %16
 x6 | x6 | x6 | x6 |] %20

